X:397
T: MEI SCHATZERL IS GWANDERT
N: B0470
O: Europa, Mitteleuropa, Oesterreich, Tirol
R: Liebes - Lied, Leid, Klage
M: 3/4
L: 1/8
K: G
B2 | cBA2e2 | d3c
B2 | c2EGFA | G3A
B2 | cBA2e2 | d3c
B2 | c2EGFA | G4

